pix_core/e/insert_col_before.svg

<svg fill="none" preserveAspectRatio="xMinYMid meet" viewBox="0 0 18 18" xmlns="http://www.w3.org/2000/svg"><g fill="#fff"><path d="m3.00101 3.80121c0-1.59031 1.2892-2.879518 2.87952-2.879518h8.31807c1.5903 0 2.8795 1.289208 2.8795 2.879518v10.39759c0 1.5903-1.2892 2.8795-2.8795 2.8795h-8.31807c-1.59032 0-2.87952-1.2892-2.87952-2.8795v-.8h1.6v.8c0 .7067.57286 1.2795 1.27952 1.2795h3.61974v-12.95661h-3.61974c-.70666 0-1.27952.57286-1.27952 1.27952v.8h-1.6z"/><path d="m3.80135 6.12048c.44183 0 .8.35818.8.8v1.27953h1.27957c.44182 0 .8.35817.8.8s-.35818.8-.8.8h-1.27957v1.27949c0 .4419-.35817.8-.8.8s-.8-.3581-.8-.8v-1.27949h-1.27947c-.44183 0-.800005-.35817-.800005-.8s.358175-.8.800005-.8h1.27947v-1.27953c0-.44182.35817-.8.8-.8z"/></g></svg>

<svg viewBox="0 0 18 18" fill="none" xmlns="http://www.w3.org/2000/svg" preserveAspectRatio="xMinYMid meet">
<path  d="M3.00101 3.80121C3.00101 2.2109 4.29021 0.921692 5.88053 0.921692H14.1986C15.7889 0.921692 17.0781 2.2109 17.0781 3.80121V14.1988C17.0781 15.7891 15.7889 17.0783 14.1986 17.0783H5.88053C4.29021 17.0783 3.00101 15.7891 3.00101 14.1988V13.3988H4.60101V14.1988C4.60101 14.9055 5.17387 15.4783 5.88053 15.4783H9.50027V2.52169H5.88053C5.17387 2.52169 4.60101 3.09455 4.60101 3.80121V4.60121H3.00101V3.80121Z" fill="#fff"/>
<path  d="M3.80135 6.12048C4.24318 6.12048 4.60135 6.47866 4.60135 6.92048V8.20001H5.88092C6.32274 8.20001 6.68092 8.55818 6.68092 9.00001C6.68092 9.44184 6.32274 9.80001 5.88092 9.80001H4.60135V11.0795C4.60135 11.5214 4.24318 11.8795 3.80135 11.8795C3.35952 11.8795 3.00135 11.5214 3.00135 11.0795V9.80001H1.72188C1.28005 9.80001 0.921875 9.44184 0.921875 9.00001C0.921875 8.55818 1.28005 8.20001 1.72188 8.20001H3.00135V6.92048C3.00135 6.47866 3.35952 6.12048 3.80135 6.12048Z" fill="#fff"/>
</svg>
